X: 06053
T: MICHAEL and KAREN
C: Bob McQuillen 1 Nov 81
B: Bob's Note Book 6 #53
%R: waltz
Z: 2021 John Chambers <jc:trillian.mit.edu>
M: 3/4
L: 1/4
K: G
dc \
| B>AG | GBA | AG>E | D2D | G>Bd | dcB | c>Bc | Adc |\
| B>AG | GBA | AG>E | DGA | BdB  | A2G | G3-  | G  :|
|: Bc \
| dBd | g>fg | efg  | d2B | cd>e | dBA | GE>E | EGB |\
| dBd | gfg  | ag>e | dBG | cde  | B2A | G3-  | G  :|
%%begintext align
%% With so much
%% love to Karen Carey and Michael McKernan
%% on their Happy Wedding Day ...
%%endtext

%%sep 1 1 500

%%sep 1 1 500

